X:1
T:Title
%%score { 1 | 2 }
L:1/8
Q:1/4=92
M:3/4
K:F
V:1 treble nm="Grand Piano"
V:2 bass 
V:1
 c>c c3 c | d>c c2 A2 | A>A A3 A | B>A [FA]2 [EG]2 | [EG]>[FA] [GB]3 [Ac] | [Bd]>[Ac] A4 | %6
w: Robert~Lowry * * *||||||
 F>G A3 [DFB] | [FA]>[B,EG] F4 | c>c c4 | (3AGF [Ec]4 | [GB]>[GB] [GB]4 | (3GAB [Ac]4 | c>d d c3 | %13
w: |||||||
 A>B B A3 | (3AGF [Ec]4 | [EG]>[EA] F4 |] %16
w: |||
V:2
 [F,A,F]>[F,A,F] [F,A,F]3 [F,A,F] | [F,B,F]>[F,A,F] [F,A,F]2 [F,CF]2 | %2
 [F,CF]>[F,CF] [F,CF]3 [F,CF] | [F,DF]>[F,CF] [C,C]2 [C,C]2 | [C,C]>[C,C] [C,C]3 [C,C] | %5
 [C,C]>[C,C] [F,CF]4 | [F,A,C]>[F,B,C] [F,CF]3 B,, | C,>C, [F,A,]4 | [F,A,F]>[F,A,F] [F,A,F]4 | %9
 (3[F,-CF-][F,B,F][F,A,] [C,G,]4 | [C,C]>[C,C] [C,C]4 | (3[B,C-E][A,CF][G,CG][K:bass] [F,C]4 | %12
 [F,A,F]>[F,B,F] [F,B,F] [F,A,F]3 | [F,CF]>[F,DF] [F,DF] [F,CF]3 | %14
 (3[F,-CF-][F,B,F][F,A,] [C,G,]4 | [C,B,]>[C,C] [F,A,]4 |] %16

